X:1
T:Title
%%score { ( 1 3 ) | ( 2 4 ) }
L:1/8
M:3/4
K:Ab
V:1 treble nm="Grand Piano"
V:3 treble 
V:2 bass 
V:4 bass 
V:1
 z2 z2[Q:1/4=110] [Ec][DB] | [CA]2 AG AB | [DA]2 [DG]2 GA | B2 B2 d2 | [Ec]4 [Ec][DB] | %5
 [CA]2 .[CEA]2 .[CEA]2 | [EA]2 [EG]2 [EB][Ec] | [=DB]2 [DF]2 [Dc]2 | B4 cB | [CA]2 AG AB | %10
 [DA]2 [DG]2 GA | B2 [GB]2 [FB]2 | [=Ec]4 [Ec][Ec] | c2 fe dc |[M:2/4] [Fd]2 [DF]2 | %15
[M:1/4] [EFc][DFB] |[M:3/4] [CEA]2 [EAc]2 [DGB]2 |[M:2/4] [CEA]4 |[M:1/4] [Ec][Ec] | %19
[M:3/4] [Ge]2 .[EGB]2 .[EGd]2 | [EAc]4 [CEA][CEA] | [C=Ec]2 .[CEG]2 .[CEB]2 | [CFA]4 AA | %23
 [Af]2 de [Af]2 | e2 c2 AA | A2 GA G-[Gc] |[M:2/4] [CEA]4 |] %27
V:2
 z2 z2 [A,,A,][A,,A,] | [A,,E,]2 [A,,E,]2 [A,,E,]2 | [B,,E,]2 [B,,E,]2 [E,D][E,F,D] | %3
 [E,G,D]2 [E,G,E]2 [E,G,E]2 | [A,,A,]4 [A,,A,][A,,A,] | [A,,E,]2 z G z[K:treble] B | %6
 [B,,B,]2 [B,,B,]2 [B,,G,][B,,G,] | [B,,A,]2 [B,,A,]2 [B,,A,]2 | [E,G,E]4 [E,G,E][E,G,D] | %9
 [A,,A,]2 [A,,E,]2 [A,,E,]2 | [B,,E,]2 [B,,E,]2 [E,D][E,F,D] | [E,G,D]2 [E,B,]2 [D,F,]2 | %12
 [C,G,]4 [C,B,][C,B,] | [F,A,F]2 [F,A,F]2 [F,A,F]2 |[M:2/4] [B,,B,]2 [B,,B,]2 |[M:1/4] C,D, | %16
[M:3/4] E,2 E,2 E,2 |[M:2/4] A,,4 |[M:1/4] A,A, |[M:3/4] [E,B,]2 z[K:treble] c z e | %20
 A,4 A,[K:bass]A, | C,2 z A z[K:treble] c | F,4 A,A, | [D,D]2 [F,D][E,C] [D,D]2 | %24
 [A,CA]2 [A,CE]2[K:bass] [=E,_C=D][E,CD] | [E,CE]2 B,C z E |[M:2/4] A,,4 |] %27
V:3
 x6 | z2 C2 C2 | x6 | x6 | x6 | x6 | x6 | x6 | x6 | z2 C2 C2 | x6 | x6 | x6 | x6 |[M:2/4] x4 | %15
[M:1/4] x2 |[M:3/4] x6 |[M:2/4] x4 |[M:1/4] x2 |[M:3/4] x6 | x6 | x6 | x6 | z2 A2 z2 | x6 | %25
 z2 z2 .[DB]2 |[M:2/4] x4 |] %27
V:4
 x6 | x6 | x6 | x6 | x6 | z2 A,,2 A,,2[K:treble] | x6 | x6 | x6 | x6 | x6 | x6 | x6 | x6 | %14
[M:2/4] x4 |[M:1/4] x2 |[M:3/4] x6 |[M:2/4] x4 |[M:1/4] x2 |[M:3/4] z2 E,2[K:treble] E,2 | %20
 x5[K:bass] x | z2 C,2 C,2[K:treble] | x6 | x6 | x4[K:bass] x2 | z2 [E,E]2 E,2 |[M:2/4] x4 |] %27

